X:185
T: Hussey's Penguin
C: BB
L: 1/8
Q: 1/8=350
M: 4/4
R: reel
K: D
"Bm"F2 BA FEDE | "Bm"FDB,D FBBA | "D"F2 AF "G"GABd | "A7"ceag "D"fdAG |
"Bm"F2 BA FEDE | "Bm"FEDB, "D"A,DDF | "A"AGFE "D"FAdB | "A7"AGEC "D"D4 :|
"D"ABde faa^g | "Bm7"abaf "Em"efdB | "D"ABde faa^g | "Bm7"abaf "Em"e2 dB |
"D"ABde faaf | "G"gefd "Em"efge | "D"fa a2 "Em"bage | "A"cdec "D"d4 :|
